public/img/waveMyService.svg

<svg xmlns="http://www.w3.org/2000/svg" viewBox="0 0 1440 320"><path fill="#f3f4f5" d="m0 64 16 21.3C32 107 64 149 96 144s64-59 96-80 64-11 96 26.7c32 37.3 64 101.3 96 90.6 32-10.3 64-96.3 96-96 32-.3 64 85.7 96 112 32 26.7 64-5.3 96-10.6 32-5.7 64 16.3 96-10.7s64-101 96-112 64 43 96 69.3c32 26.7 64 26.7 96 5.4 32-21.7 64-63.7 96-64 32 .3 64 42.3 96 64 32 21.3 64 21.3 96 42.6 32 21.7 64 63.7 80 85.4l16 21.3v32H0Z"/></svg>

<?xml version="1.0" standalone="no"?><svg xmlns="http://www.w3.org/2000/svg" viewBox="0 0 1440 320"><path fill="#f3f4f5" fill-opacity="1" d="M0,64L16,85.3C32,107,64,149,96,144C128,139,160,85,192,64C224,43,256,53,288,90.7C320,128,352,192,384,181.3C416,171,448,85,480,85.3C512,85,544,171,576,197.3C608,224,640,192,672,186.7C704,181,736,203,768,176C800,149,832,75,864,64C896,53,928,107,960,133.3C992,160,1024,160,1056,138.7C1088,117,1120,75,1152,74.7C1184,75,1216,117,1248,138.7C1280,160,1312,160,1344,181.3C1376,203,1408,245,1424,266.7L1440,288L1440,320L1424,320C1408,320,1376,320,1344,320C1312,320,1280,320,1248,320C1216,320,1184,320,1152,320C1120,320,1088,320,1056,320C1024,320,992,320,960,320C928,320,896,320,864,320C832,320,800,320,768,320C736,320,704,320,672,320C640,320,608,320,576,320C544,320,512,320,480,320C448,320,416,320,384,320C352,320,320,320,288,320C256,320,224,320,192,320C160,320,128,320,96,320C64,320,32,320,16,320L0,320Z"></path></svg>
